img/waves_bkgd_purple.svg

<?xml version="1.0" encoding="UTF-8" standalone="no"?>
<!-- Created with Inkscape (http://www.inkscape.org/) -->

<svg
   width="198.0661mm"
   height="74.275078mm"
   viewBox="0 0 198.0661 74.275078"
   version="1.1"
   id="svg1"
   xmlns:xlink="http://www.w3.org/1999/xlink"
   xmlns="http://www.w3.org/2000/svg"
   xmlns:svg="http://www.w3.org/2000/svg">
  <defs
     id="defs1">
    <linearGradient
       xlink:href="#linearGradient52"
       id="linearGradient78"
       gradientUnits="userSpaceOnUse"
       gradientTransform="matrix(2.2507553,0,0,2.2507553,0,-510.1319)"
       x1="0"
       y1="243.14925"
       x2="87.999794"
       y2="243.14925" />
    <linearGradient
       id="linearGradient52">
      <stop
         style="stop-color:#1c01a4;stop-opacity:0;"
         offset="0.1474245"
         id="stop49" />
      <stop
         style="stop-color:#1c01a4;stop-opacity:1;"
         offset="0.38010657"
         id="stop50" />
      <stop
         style="stop-color:#1c01a4;stop-opacity:1;"
         offset="0.6802842"
         id="stop51" />
      <stop
         style="stop-color:#1c01a4;stop-opacity:0;"
         offset="0.8490231"
         id="stop52" />
    </linearGradient>
  </defs>
  <g
     id="layer1">
    <path
       id="rect10-8-4-3-8-7"
       style="display:inline;fill:url(#linearGradient78);fill-opacity:1;stroke-width:5.94578"
       d="M 12.3789,0 A 12.379154,12.379154 0 0 0 0,12.37901 v 49.51707 a 12.379154,12.379154 0 0 1 12.3789,-12.37897 12.379154,12.379154 0 0 1 12.3789,12.37897 12.379154,12.379154 0 0 0 12.3792,12.379 12.379154,12.379154 0 0 0 12.3789,-12.379 V 12.37901 A 12.379154,12.379154 0 0 1 37.137,24.75798 12.379154,12.379154 0 0 1 24.7578,12.37901 12.379154,12.379154 0 0 0 12.3789,0 Z M 61.896,0 A 12.379154,12.379154 0 0 0 49.5171,12.37901 v 49.51707 a 12.379154,12.379154 0 0 1 12.3789,-12.37897 12.379154,12.379154 0 0 1 12.3792,12.37897 12.379154,12.379154 0 0 0 12.3789,12.379 12.379154,12.379154 0 0 0 12.3789,-12.379 12.379154,12.379154 0 0 1 12.379,-12.37897 12.379154,12.379154 0 0 1 12.3788,12.37897 12.379154,12.379154 0 0 0 12.3793,12.379 12.379154,12.379154 0 0 0 12.3788,-12.379 V 12.37901 A 12.379154,12.379154 0 0 1 136.17,24.75798 12.379154,12.379154 0 0 1 123.7908,12.37901 12.379154,12.379154 0 0 0 111.4119,0 12.379154,12.379154 0 0 0 99.033,12.37901 12.379154,12.379154 0 0 1 86.6541,24.75798 12.379154,12.379154 0 0 1 74.2751,12.37901 12.379154,12.379154 0 0 0 61.896,0 Z m 99.0331,0 a 12.379154,12.379154 0 0 0 -12.3789,12.37901 v 49.51707 a 12.379154,12.379154 0 0 1 12.3789,-12.37897 12.379154,12.379154 0 0 1 12.3791,12.37897 12.379154,12.379154 0 0 0 12.379,12.379 12.379154,12.379154 0 0 0 12.3789,-12.379 V 12.37901 A 12.379154,12.379154 0 0 1 185.6872,24.75798 12.379154,12.379154 0 0 1 173.3082,12.37901 12.379154,12.379154 0 0 0 160.9291,0 Z" />
  </g>
</svg>

<?xml version="1.0" encoding="UTF-8" standalone="no"?>
<!-- Created with Inkscape (http://www.inkscape.org/) -->

<svg
   width="198.06599mm"
   height="74.27507mm"
   viewBox="0 0 198.06599 74.27507"
   version="1.1"
   id="svg1"
   xmlns:xlink="http://www.w3.org/1999/xlink"
   xmlns="http://www.w3.org/2000/svg"
   xmlns:svg="http://www.w3.org/2000/svg">
  <defs
     id="defs1">
    <linearGradient
       xlink:href="#linearGradient19"
       id="linearGradient18"
       gradientUnits="userSpaceOnUse"
       gradientTransform="matrix(2.2507553,0,0,2.2507553,0,-510.1319)"
       x1="0"
       y1="243.14925"
       x2="87.999794"
       y2="243.14925" />
    <linearGradient
       id="linearGradient19">
      <stop
         style="stop-color:#1c01a4;stop-opacity:0;"
         offset="0.1474245"
         id="stop21" />
      <stop
         style="stop-color:#1c01a4;stop-opacity:0.17;"
         offset="0.38010657"
         id="stop18" />
      <stop
         style="stop-color:#1c01a4;stop-opacity:0.17;"
         offset="0.6802842"
         id="stop19" />
      <stop
         style="stop-color:#1c01a4;stop-opacity:0;"
         offset="0.8490231"
         id="stop20" />
    </linearGradient>
  </defs>
  <g
     id="layer1">
    <path
       id="rect10-8-4-3-8"
       style="display:inline;fill:url(#linearGradient18);fill-opacity:1;stroke-width:5.94578"
       d="M 12.3789,0 A 12.379154,12.379154 0 0 0 0,12.379 V 61.89606 A 12.379154,12.379154 0 0 1 12.3789,49.51709 12.379154,12.379154 0 0 1 24.7578,61.89606 12.379154,12.379154 0 0 0 37.137,74.27507 12.379154,12.379154 0 0 0 49.5159,61.89606 V 12.379 A 12.379154,12.379154 0 0 1 37.137,24.75797 12.379154,12.379154 0 0 1 24.7578,12.379 12.379154,12.379154 0 0 0 12.3789,0 Z M 61.896,0 A 12.379154,12.379154 0 0 0 49.5171,12.379 V 61.89606 A 12.379154,12.379154 0 0 1 61.896,49.51709 12.379154,12.379154 0 0 1 74.2751,61.89606 12.379154,12.379154 0 0 0 86.6541,74.27507 12.379154,12.379154 0 0 0 99.033,61.89606 12.379154,12.379154 0 0 1 111.4119,49.51709 12.379154,12.379154 0 0 1 123.7908,61.89606 12.379154,12.379154 0 0 0 136.17,74.27507 12.379154,12.379154 0 0 0 148.5489,61.89606 V 12.379 A 12.379154,12.379154 0 0 1 136.17,24.75797 12.379154,12.379154 0 0 1 123.7908,12.379 12.379154,12.379154 0 0 0 111.4119,0 12.379154,12.379154 0 0 0 99.033,12.379 12.379154,12.379154 0 0 1 86.6541,24.75797 12.379154,12.379154 0 0 1 74.2751,12.379 12.379154,12.379154 0 0 0 61.896,0 Z m 99.033,0 a 12.379154,12.379154 0 0 0 -12.3789,12.379 v 49.51706 a 12.379154,12.379154 0 0 1 12.3789,-12.37897 12.379154,12.379154 0 0 1 12.3791,12.37897 12.379154,12.379154 0 0 0 12.379,12.37901 12.379154,12.379154 0 0 0 12.3789,-12.37901 V 12.379 A 12.379154,12.379154 0 0 1 185.6871,24.75797 12.379154,12.379154 0 0 1 173.3081,12.379 12.379154,12.379154 0 0 0 160.929,0 Z" />
  </g>
</svg>
